X:1
T:When the Swallows Homeward Fly
T:When the Swallows Homeward Fly
T:(Agathe) Voice and Piano 
T:Franz Abt (1819-1885) c. 1846
T:public domain - Mutopia-2014/11/13-439
T:public domain - Mutopia-2014/11/13-439
C:Franz Abt (1819-1885)
C:c. 1846
Z:public domain - Mutopia-2014/11/13-439
%%score 1 { ( 2 4 ) | 3 }
L:1/8
Q:1/4=60
M:3/4
K:G
V:1 treble nm="Voice"
V:2 treble nm="Piano"
V:4 treble 
V:3 bass 
V:1
!mf!"^Andantino" B,3/2 C/ | D3!<(! G!<)!!>(! B3/2!>)! A/ | G4 A E | D2- D/ (G/ F/ E/) D3/2 C/ | %4
w: When the|swal lows home ward|fly, When the|ro- * ses * * scat ter'd|
w: When the|white swan south\- ward|roves, To seek|at noon the * * or\- ange|
w: My poor|heart, why do you|cry, Once al\-|so you in * * peace will|
 B,2 z2 B, ^D |"^cresc." E3 E F3/2 B,/ | G4 (G/ B/) (G/ E/) | D3/2 A,/"^dim." F3 E | %8
w: lie, When from|neith er hill nor|dale, Chants * the *|silv' ry night- in|
w: groves, When the|red tints of the|west, Prove * the *|sun is gone to|
w: lie! All things|on this earth must|die; Will * then *|we meet, you and|
 D2 z2 D3/2 E/ | F3"^cresc." D F G | A4 F3/2 G/ | A3!<(! ^G A B!<)! |!f! c6 |!mf! B4 (3(A B A) | %14
w: gale, In these|words my bleed ing|heart, Would to|thee its grief im|part.|When I _ _|
w: rest, In these|words my bleed\- ing|heart, Would to|thee its grief im\-|part|When I _ _|
w: I? My heart|asks with bod\- ing|pain Will faith|join us once a\-|gain?|My heart * *|
 G4 D2 |!<(! (D2 E F) (G A)!<)! | B4 z2 |!mf! E2 B3 A | D4 G2 |!<(! F2 G2 A2!<)! | B6 | %21
w: thus thy|im\- * * age *|lose,|Can I, ah!|can I|e'er know re\-|pose,|
w: thus thy|im\- * * age *|lose,|Can I, ah!|can I|e'er know re\-|pose.|
w: asks with|boding * * ing *|pain|Will faith *|join us|once a- *|gain?|
!f! (d3 c) E A | A4 G2 | F2"^dim." B3 A | G4 :| %25
w: Can * I, ah!|can I|e'er know re\-|pose.|
w: Can * I, ah!|can I|e'er know re\-.|pose.|
w: A\- * ter to\-|day's bit\-|ter part\- ing|pain.|
V:2
 B,>C |!mf! ([B,D]3 [B,G] [DB]>[CA]) | ([B,G]4 [CF]E) | ([B,D]2 D/G/F/E/ D>C) | B,2 z2 B,^D | %5
"_cresc." (E3 E F>B,) | G4 (G/B/G/E/) | (D>A,"_dim." F2- FE) | D2 z2 (D>E) | ([DF]3"_cresc." DFG) | %10
 [DA]4 F>G | ([FA]3!<(! ^GAB)!<)! |!f!!>(! [DFc]6!>)! |!mf! [DGB]4 (3[CA][DB][CA] | [B,G]4 [B,D]2 | %15
!<(! (C2 EFGA)!<)! | [DGB]4 z2 |!mf! (E2 B3 A) | (D4 G2) |!<(! (F2 [EG]2 [FA]2)!<)! | [GB]6 | %21
!f! ([EAd]3 cEA) | (A4 G2) | ([CF]2 [DB]3 [CA]) | [B,G]4 :| %25
V:3
 z2 | (G,,D,G,!<(!D,!>(!G,!<)!D,)!>)! | (G,,D,G,D,G,D,) | (D,,D,G,D,F,D,) | (G,,D,G,D,G,[F,A,]) | %5
 [E,G,]B,,[E,G,]B,,[^D,A,]B,, | (E,,E,[G,B,]E,[G,B,]E,) | (A,,D,[F,A,]D,) ([G,^C]A,,) | %8
 D,,[D,F,A,][D,F,A,][D,F,A,][D,F,A,][D,F,A,] | [D,F,A,][D,F,A,][D,F,A,][D,F,A,]D,E, | %10
 F,[D,F,A,][D,F,A,][D,F,A,][D,F,A,][D,F,A,] | [D,F,A,][D,F,A,][D,F,A,][D,^E,][D,F,][D,=G,] | %12
 [D,A,][D,F,A,][D,F,A,][D,F,A,][D,F,A,][D,F,A,] | (G,,D,G,D,F,D,) | (D,,D,G,D,G,D,) | %15
 (D,,D,[F,A,]D,[F,A,]D,) | (G,,D,G,D,G,D,) | C,[E,A,][E,A,][E,A,][E,A,][E,A,] | %18
 D,[G,B,][G,B,][G,B,][G,B,][G,B,] | (D,D^CA,=CA,) | (G,,D,G,D,B,,G,,) | (C,,E,[A,C]E,[A,C]E,) | %22
 (D,,D,G,D,G,D,) | (D,,D,F,D,F,D,) | (G,2 G,,2) :| %25
V:4
 x2 | x6 | x6 | x6 | x6 | x6 | x6 | x6 | x6 | x6 | x6 | x6 | x6 | x6 | x6 | D4 x2 | x6 | C6 | x6 | %19
 x6 | x6 | x6 | B,6 | x6 | x4 :| %25

